Newaita/actions/24/format-precision-more.svg

<svg height="24" viewBox="0 0 24 24" width="24" xmlns="http://www.w3.org/2000/svg"><g fill="#424242"><path d="m21.832031 18.046875v.992187c0 .277344-.222656.496094-.496093.496094h-5.957032c-.273437 0-.496094-.21875-.496094-.496094v-.992187c0-.273437.222657-.496094.496094-.496094h5.957032c.273437 0 .496093.222657.496093.496094zm0 0"/><path d="m18.851562 22.019531h-.992187c-.273437 0-.496094-.222656-.496094-.496093v-5.957032c0-.273437.222657-.496094.496094-.496094h.992187c.277344 0 .496094.222657.496094.496094v5.957032c0 .273437-.21875.496093-.496094.496093zm0 0"/><path d="m9.425781 2.171875c-2.0625 0-3.71875 1.660156-3.71875 3.722656v3.472657c0 2.058593 1.65625 3.71875 3.71875 3.71875s3.722657-1.660157 3.722657-3.71875v-3.472657c0-2.0625-1.660157-3.722656-3.722657-3.722656zm0 1.984375c.964844 0 1.738281.773438 1.738281 1.738281v3.472657c0 .960937-.773437 1.734374-1.738281 1.734374-.960937 0-1.734375-.773437-1.734375-1.734374v-3.472657c0-.964843.773438-1.738281 1.734375-1.738281zm0 0"/><path d="m18.109375 2.171875c-2.0625 0-3.722656 1.660156-3.722656 3.722656v3.472657c0 2.058593 1.660156 3.71875 3.722656 3.71875s3.722656-1.660157 3.722656-3.71875v-3.472657c0-2.0625-1.660156-3.722656-3.722656-3.722656zm0 1.984375c.960937 0 1.734375.773438 1.734375 1.738281v3.472657c0 .960937-.773438 1.734374-1.734375 1.734374s-1.738281-.773437-1.738281-1.734374v-3.472657c0-.964843.777344-1.738281 1.738281-1.738281zm0 0"/><path d="m2.480469 11.101562h.992187c.273438 0 .496094.222657.496094.496094v.992188c0 .273437-.222656.496094-.496094.496094h-.992187c-.273438 0-.496094-.222657-.496094-.496094v-.992188c0-.273437.222656-.496094.496094-.496094zm0 0"/></g></svg>

<svg xmlns="http://www.w3.org/2000/svg" xmlns:xlink="http://www.w3.org/1999/xlink" width="24px" height="24px" viewBox="0 0 24 24" version="1.1">
<g id="surface1">
     <defs>
  <style id="current-color-scheme" type="text/css">
   .ColorScheme-Text { color:#424242; } .ColorScheme-Highlight { color:#eeeeee; }
  </style>
 </defs>
<path style="fill:currentColor" class="ColorScheme-Text" d="M 21.832031 18.046875 L 21.832031 19.039062 C 21.832031 19.316406 21.609375 19.535156 21.335938 19.535156 L 15.378906 19.535156 C 15.105469 19.535156 14.882812 19.316406 14.882812 19.039062 L 14.882812 18.046875 C 14.882812 17.773438 15.105469 17.550781 15.378906 17.550781 L 21.335938 17.550781 C 21.609375 17.550781 21.832031 17.773438 21.832031 18.046875 Z M 21.832031 18.046875 "/>
     <defs>
  <style id="current-color-scheme" type="text/css">
   .ColorScheme-Text { color:#424242; } .ColorScheme-Highlight { color:#eeeeee; }
  </style>
 </defs>
<path style="fill:currentColor" class="ColorScheme-Text" d="M 18.851562 22.019531 L 17.859375 22.019531 C 17.585938 22.019531 17.363281 21.796875 17.363281 21.523438 L 17.363281 15.566406 C 17.363281 15.292969 17.585938 15.070312 17.859375 15.070312 L 18.851562 15.070312 C 19.128906 15.070312 19.347656 15.292969 19.347656 15.566406 L 19.347656 21.523438 C 19.347656 21.796875 19.128906 22.019531 18.851562 22.019531 Z M 18.851562 22.019531 "/>
     <defs>
  <style id="current-color-scheme" type="text/css">
   .ColorScheme-Text { color:#424242; } .ColorScheme-Highlight { color:#eeeeee; }
  </style>
 </defs>
<path style="fill:currentColor" class="ColorScheme-Text" d="M 9.425781 2.171875 C 7.363281 2.171875 5.707031 3.832031 5.707031 5.894531 L 5.707031 9.367188 C 5.707031 11.425781 7.363281 13.085938 9.425781 13.085938 C 11.488281 13.085938 13.148438 11.425781 13.148438 9.367188 L 13.148438 5.894531 C 13.148438 3.832031 11.488281 2.171875 9.425781 2.171875 Z M 9.425781 4.15625 C 10.390625 4.15625 11.164062 4.929688 11.164062 5.894531 L 11.164062 9.367188 C 11.164062 10.328125 10.390625 11.101562 9.425781 11.101562 C 8.464844 11.101562 7.691406 10.328125 7.691406 9.367188 L 7.691406 5.894531 C 7.691406 4.929688 8.464844 4.15625 9.425781 4.15625 Z M 9.425781 4.15625 "/>
     <defs>
  <style id="current-color-scheme" type="text/css">
   .ColorScheme-Text { color:#424242; } .ColorScheme-Highlight { color:#eeeeee; }
  </style>
 </defs>
<path style="fill:currentColor" class="ColorScheme-Text" d="M 18.109375 2.171875 C 16.046875 2.171875 14.386719 3.832031 14.386719 5.894531 L 14.386719 9.367188 C 14.386719 11.425781 16.046875 13.085938 18.109375 13.085938 C 20.171875 13.085938 21.832031 11.425781 21.832031 9.367188 L 21.832031 5.894531 C 21.832031 3.832031 20.171875 2.171875 18.109375 2.171875 Z M 18.109375 4.15625 C 19.070312 4.15625 19.84375 4.929688 19.84375 5.894531 L 19.84375 9.367188 C 19.84375 10.328125 19.070312 11.101562 18.109375 11.101562 C 17.148438 11.101562 16.371094 10.328125 16.371094 9.367188 L 16.371094 5.894531 C 16.371094 4.929688 17.148438 4.15625 18.109375 4.15625 Z M 18.109375 4.15625 "/>
     <defs>
  <style id="current-color-scheme" type="text/css">
   .ColorScheme-Text { color:#424242; } .ColorScheme-Highlight { color:#eeeeee; }
  </style>
 </defs>
<path style="fill:currentColor" class="ColorScheme-Text" d="M 2.480469 11.101562 L 3.472656 11.101562 C 3.746094 11.101562 3.96875 11.324219 3.96875 11.597656 L 3.96875 12.589844 C 3.96875 12.863281 3.746094 13.085938 3.472656 13.085938 L 2.480469 13.085938 C 2.207031 13.085938 1.984375 12.863281 1.984375 12.589844 L 1.984375 11.597656 C 1.984375 11.324219 2.207031 11.101562 2.480469 11.101562 Z M 2.480469 11.101562 "/>
</g>
</svg>
